X:1
T:Susan Strayed the Briny Beach
M:6/8
L:1/8
K:C
 G| G2 AE-F G| c2 E F2 G|E-D C E2 D| C3 z2 G| c2 d c2 B|c-G G B2 d|\
 c2 c E2 F| G3 z2 G/2G/2| c2 d c2 B| c2 GG-A d| c2 c E2 F| G2 z A2 G|\
 F2 DE-F G| c2 E F2G/2-F/2|E-D C E2 D| C3 z2||

